X:5
T:Down the Brae
R:reel
C:Trad.
M:4/4
K:Em
B,2 D2 || E3 D E2 F2 | G3F G2 A2 | B4 e4 | d2 B4 A2 |
G3 F G2 B2 | A2 F2 D2 E2 |1 F4 E4 | D2 B,4 D2 :|2
 F4 E2 D2 | E4 e2 d2 :|
B4 e4 | e4 d2 e2 | f4 e4 |
|d2 B6 | A3 ^G A2 B2 | d3 ^c d2 e2 |
d2 B2 A2 B2 | d4 B2 A2 |
B4 e4 | e4 d2 e2 | f4 e4 |
|d2 B4 A2| G3 F G2 B2 | A2 F2 D2 E2 | F4 E2 D2 | E4 z4 :||
